X:116
T:116 The Dusty Miller
C:Welch MS
I:abc2nwc
M:6/4
L:1/8
K:G
B2c2d2B2A2G2|F2A2A2B2c2A2|B2c2d2B2A2G2|D2G2G2A2B2G2|
B2c2d2B2A2G2|F2A2A2B2c2A2|B2c2d2B2A2G2|D2G2G2A2B2G2||
B2c2d2e2f2g2|a2A2A2B2c2A2|B2c2d2e2f2g2|g2G2G2A2B2G2|
B2c2d2e2f2g2|a2A2A2B2c2A2|B2c2d2e2f2g2|g2G2G2B2c2A2|]


